svg/Pictogram/pictograms-hazard_signs-19.svg

<svg viewBox="0 0 94.263 82.946" width="94.26" xmlns="http://www.w3.org/2000/svg"><path d="m46.36.061c-1.504.232-2.827 1.121-3.583 2.438l-42.11 72.949c-.88 1.533-.895 3.443 0 4.986.895 1.545 2.559 2.514 4.358 2.512h84.22c1.801.002 3.465-.967 4.359-2.512.895-1.543.879-3.453 0-4.986l-42.11-72.949c-1.035-1.803-3.086-2.758-5.135-2.438" fill="#fdee1c"/><path d="m46.744 2.12c-.814.127-1.508.617-1.9 1.301l-42.4 73.45c-.464.809-.466 1.848 0 2.65.474.816 1.348 1.352 2.3 1.35h84.8c.951.002 1.826-.533 2.299-1.35.467-.803.465-1.842 0-2.65l-42.4-73.45c-.545-.947-1.598-1.472-2.7-1.3m.399 8.451l36 63.4h-72.05l36.05-63.4" fill="#010101"/><g fill="none" stroke="#010101" stroke-linejoin="round" stroke-miterlimit="10"><g stroke-width=".795"><path d="m37.844 69.04c4.481-2.031 7.809-2.619 14.03-6.82l10.166-10.939c.32-2.201-1.186-2.641-2.703-2.701l-11.71 12.354"/><path d="m59.2 48.704l2.447-2.695c.547-2.91-1.537-3.617-3.604-2.832l-13.897 14.03" stroke-linecap="round"/><path d="m53.48 47.567l-3.148-2.074-9.137 9.137m9.04-9.165l-3.497-2.166-8.504 8.113m.129-.224l-.644-5.824c-.584-3.082-4.747-3.717-5.533-.771l.258 16.215"/></g><path d="m43.831 42.11c.182 0 12.04 2.58 12.04 2.58m-.393-.26l1.912-7.598c-.271-1.857-2.67-3.305-4.232-.684l-1.783 7.58m.976-4.251c.225-3.225-4.175-3.383-4.797-.812l-1 3.957" stroke-width=".398"/></g></svg>

<?xml version="1.0" encoding="iso-8859-1"?>
<!-- Generator: Adobe Illustrator 13.0.2, SVG Export Plug-In . SVG Version: 6.00 Build 14948)  --><svg baseProfile="tiny" height="82.946px" id="Layer_1" space="preserve" version="1.2" viewBox="0 0 94.263 82.946" width="94.263px" x="0px" xmlns="http://www.w3.org/2000/svg" xmlns:xlink="http://www.w3.org/1999/xlink" y="0px">
  <metadata>
    <rdf:RDF xmlns:cc="http://web.resource.org/cc/" xmlns:dc="http://purl.org/dc/elements/1.1/" xmlns:rdf="http://www.w3.org/1999/02/22-rdf-syntax-ns#">
      <cc:Work rdf:about="">
        <dc:title></dc:title>
        <dc:description></dc:description>
        <dc:subject>
          <rdf:Bag>
            <rdf:li></rdf:li>
          </rdf:Bag>
        </dc:subject>
        <dc:publisher>
          <cc:Agent rdf:about="http://openclipart.org">
            <dc:title>Source: Open Clip Art Library, Source: Open Clip Art Library</dc:title>
          </cc:Agent>
        </dc:publisher>
        <dc:creator>
          <cc:Agent>
            <dc:title></dc:title>
          </cc:Agent>
        </dc:creator>
        <dc:rights>
          <cc:Agent>
            <dc:title></dc:title>
          </cc:Agent>
        </dc:rights>
        <dc:date></dc:date>
        <dc:format>image/svg+xml</dc:format>
        <dc:type rdf:resource="http://purl.org/dc/dcmitype/StillImage"/>
        <cc:license rdf:resource="http://en.wikipedia.org/wiki/Public_domain"/>
        <dc:language>en</dc:language>
      </cc:Work>
    </rdf:RDF>
  </metadata>
  <path d="M46.356,0.061c-1.504,0.232-2.827,1.121-3.583,2.438L0.666,75.448c-0.88,1.533-0.895,3.443,0,4.986  c0.895,1.545,2.559,2.514,4.358,2.512h84.215c1.801,0.002,3.465-0.967,4.359-2.512c0.895-1.543,0.879-3.453,0-4.986L51.491,2.499  C50.456,0.696,48.405-0.259,46.356,0.061L46.356,0.061z" fill="#FDEE1C"/>
  <path d="M46.744,2.12c-0.814,0.127-1.508,0.617-1.9,1.301L2.443,76.87c-0.464,0.809-0.466,1.848,0,2.65  c0.474,0.816,1.348,1.352,2.3,1.35h84.801c0.951,0.002,1.826-0.533,2.299-1.35c0.467-0.803,0.465-1.842,0-2.65L49.444,3.42  C48.899,2.473,47.846,1.948,46.744,2.12L46.744,2.12z M47.143,10.571l36,63.4h-72.05L47.143,10.571L47.143,10.571z" fill="#010101"/>
  <path d="M37.844,69.043  c4.481-2.031,7.809-2.619,14.027-6.82l10.166-10.939c0.32-2.201-1.186-2.641-2.703-2.701l-11.71,12.354" fill="none" stroke="#010101" stroke-linejoin="round" stroke-miterlimit="10" stroke-width="0.7954"/>
  <path d="  M59.204,48.704l2.447-2.695c0.547-2.91-1.537-3.617-3.604-2.832L44.15,57.204" fill="none" stroke="#010101" stroke-linecap="round" stroke-linejoin="round" stroke-miterlimit="10" stroke-width="0.7954"/>
  <path d="M53.475,47.567  l-3.148-2.074l-9.137,9.137 M50.231,45.465l-3.497-2.166l-8.504,8.113 M38.359,51.188l-0.644-5.824  c-0.584-3.082-4.747-3.717-5.533-0.771l0.258,16.215" fill="none" stroke="#010101" stroke-linejoin="round" stroke-miterlimit="10" stroke-width="0.7954"/>
  <path d="M43.831,42.114  c0.182,0,12.039,2.58,12.039,2.58 M55.477,44.434l1.912-7.598c-0.271-1.857-2.67-3.305-4.232-0.684l-1.783,7.58 M52.35,39.481  c0.225-3.225-4.175-3.383-4.797-0.812l-1.001,3.957" fill="none" stroke="#010101" stroke-linejoin="round" stroke-miterlimit="10" stroke-width="0.3977"/>
</svg>
